X: 18762
T: If Ever I Marry, I Am A Son Of A Whore
R: jig
M: 6/8
K: Bminor
|:F|~B3 BAB|def g2a|gfe dBA|(3.A.B.A A AFA|
(3.B.c.B B BAB|def gba|gfe dBA|B3 B2:|
|:f|bab aga|gag f2e|def afe|dBA A3|
FBB BAB|def gba|gfe dBA|B3 B2:|
|:c|dFF AFF|dFF ~A3|BFF dFF|ede ~f3|
FBB BAB|def gba|gfe dBA|B3 B2:|
|:f|b2b a2a|gag f2e|def afe|dBA (3.A.B.A A|
FBB BAB|def gba|gfe dBA|B3 B2:|

